X:12
T:Trip to the Jubilee THO1.012
M:2/4
L:1/8
Z:vmp. Peter Dunk 2012.from a transcription by Fynn Titford-Mock 2006
B:Thompson's Compleat Collection of 200 Favourite Country Dances Vol.I,1758
Q:1/4=110
K:Bb
F|B>dc>B|f>dB>e|d>cB>A|Bfg_a|\
g>eE>g|f>dD>f|d>BA>B|(B c2):|
|:c|f>ed>c|=B>_AG>F|E>_ag>f|e>dc>d|\
e>dc>B|A>GF>E| E>ed>g|f>AB>a|
b>fd>B|g>ec>A|f>cA>c|B2F2|\
G>BG>c|B>ed>c|d>BF>A|B3:|

